X: 228
T: A Hornpipe For Eileen
R: hornpipe
M: 4/4
K: Gmajor
|:d>c|B>dc>A B<GA>F|D>GG>F G2 A>B|c>AB>G A>F (3GFE|D>d^c>d D2 d>=c|
B>d (3cBA B>G (3AGF|D>GG>F G2 A>B|c>ed>c B>GA<F|D2 G2 G2:|
|:(3Bcd|g>Gf>G e>Gd>G|B>G (3Bcd g>dB>g|a>Ag>A f>Ae>A|d>^cd>e f>d (3def|
g>Gf>G e2 d>c|B>G (3Bcd g>dB>G|c>ed>c B>GA<F|D>G (3GGF G2:|

